src/assets/img/inquiry.svg

<svg width="32" height="32" viewBox="0 0 32 32" fill="none" xmlns="http://www.w3.org/2000/svg">
<circle cx="22.5" cy="13.5" r="2.5" stroke="#55576F" stroke-width="1.5"/>
<circle cx="12" cy="11" r="4" stroke="#55576F" stroke-width="1.5"/>
<path d="M5 23C5 20.2386 7.23858 18 10 18H14C16.7614 18 19 20.2386 19 23V26H5V23Z" stroke="#55576F" stroke-width="1.5"/>
<path d="M21.5001 19L23 19C25.2091 19 27 20.7909 27 23V25H19" stroke="#55576F" stroke-width="1.5"/>
</svg>

<svg width="32" height="32" fill="none" xmlns="http://www.w3.org/2000/svg"><circle cx="22.5" cy="13.5" r="2.5" stroke="#55576F" stroke-width="1.5"/><circle cx="12" cy="11" r="4" stroke="#55576F" stroke-width="1.5"/><path d="M5 23c0-2.8 2.2-5 5-5h4c2.8 0 5 2.2 5 5v3H5v-3zM21.5 19H23c2.2 0 4 1.8 4 4v2h-8" stroke="#55576F" stroke-width="1.5"/></svg>
